!!!OTL: Die fuenf Glaeser.
!!!OTL-incipit: WER MOECHTE WOHL ZU GANZEN TAGEN
!!!COM: F. L. Seidel
!!!ARE: Europa, Mitteleuropa, Deutschland
!!!SCT: F0729
!!!TXL: @@DE
!!!YEM: Copyright 1995, estate of Helmut Schaffrath.
**kern	**text
*ICvox	*
*clefG2	*
*M4/4	*
*met(c)	*
*k[f#c#g#]	*
*A:	*
!LO:TX:a:t=Lebhaft.	!
!LO:TX:a:t=Dreiſtimmig für Männer ohne, einſtimmig mit Begleitung.	!
!LO:TX:a:t=P:only the highest voice encoded:problem	!
{8e	1._Wer
8f#	möch-
8g#	-te
=1	=1
4a	wohl
4a	ʒu
4b/	gan-
4g#	-ʒen
=2	=2
[>2a	Ta-
16bqq	.
8a]	-gen
{8g#	ein
8a	Ranb
8b/	der
=3	=3
4cc#/	wil-
4a	-den
4f#	Freu-
4d#	-de
=4	=4
2e	ſein?
8r}	.
{8e	Doch
8f#	hier
8e	bei
=5	=5
4.b/	die-
8b/	-ſen
4.b/	Feſt-
8a	-ge-
=6	=6
2g#	-la-
8e}	-gen,
{8e	da
8f#	trink
8g#	ich
=7	=7
4a	gern
4a	mein
4b/	Gläschen
4b/	.
=8	=8
[>2cc#/	Wein!
8cc#/]	.
{8b/	da
8a	trink
8g#	ich
=9	=9
4f#	gern
4b/	mein
4e	Gläschen
4g#	.
=10	=10
2a	Wein!
8r}	.
{8e	da
8f#	trink
8g#	ich
=11	=11
4a	gern
4a	mein
4b/	Gläschen
4b/	.
=12	=12
[>2cc#/	Wein!
8cc#/]	.
{8b/	da
8a	trink
8g#	ich
=13	=13
4f#	gern
4b/	mein
4e	Gläschen
4g#	.
=14	=14
2a	Wein!
8r}	.
==;	==;
!!!AGN: Geselligkeits -, Trink -, Moral - Lied, national
!!!ONB: ESAC (Essen Associative Code) Database: FINK
!!!AMT: simple quadruple
!!!AIN: vox
!!!EED: Helmut Schaffrath
!!!EEV: 1.0
!!!RDF**kern: > = above
!!!GTL: Liedertafel- und Gesellschaftslieder
!!!source: Musikalischer Hausschatz der Deutschen. Eine Sammlung von über 1000 Liedern und Gesängen mit Singstimmen und Klavierbegleitung. Leipzig, Litterarisches Verlags-Haus.
!!!page: 498
!!!URL-scan: https://www.digitale-sammlungen.de/en/view/bsb11144622?page=449
!!!ENC: Anna Maria Matuszewska
!!!EEV: 2024/08/05
*-	*-
